!!!OTL: Wanjia denghuo fangguangming
!!!ARE: Asia, China,ÿAnhui Tongcheng
!! III, 547
!!!SCT: C2053
!!!YEM: Copyright 1995, estate of Helmut Schaffrath.
**kern
*ICvox
*Ivox
!! Mixed meters:  2/4; 4/4
*M4/4
*k[f#]
*G:
{8dd
8b
8dd
8ee
8b
8a
8g
8e
=1
8.g
16a
8dd
8b
8a
8b
8a
8b
=2
8g
8e
8a
8g
8g
4.e}
=3
{8a
8b
4dd
8ee
8dd
8b
8a
=4
8b
8a
8b
8dd
8g
4g
8b
=5
4a
16a
16g
8e
2d}
=6
{8dd
8b
8dd
8ee
8b
8a
8g
8e
=7
8.g
16a
8dd
8b
8a
8b
8a
8b
=8
8g
8e
8a
8g
8g
4.e}
=9
{8a
8b
4dd
8ee
8dd
8b
8a
=10
8b
8a
8b
8dd
8g
4g
8b
=11
4a
16a
16g
8e
2d}
=12
{8dd
8dd
8ee
8dd
8b
8dd
4a
=13
*M2/4
8dd
8b
8a
8a
=14
8a
8a
4dd}
=15
{8dd
8b
8a
8b
=16
8g
16g
16e
4dd
=17
8a
8a
8dd
8dd
=18
8a
8a
4dd}
=19
{8b
8a
8b
8a
=20
8b
8a
8b
8dd
=21
8g
4g
8b
=22
4a
16a
16g
8e
=23
2d}
==
!!!AGN: Xiaodiao, Paimen diao
!!!AMT: irregular
!!!AIN: vox
!!!EED: Helmut Schaffrath
!!!EEV: 1.0
*-
